X:1
T:Prince's Street
T:Prince's Street
T:Dr Arne
C:Dr Arne
L:1/8
Q:1/2=100
M:3/2
K:Eb
V:1 treble 
V:1
 A4{G} | G8 F4{E} | E8 F4 | (G4 A4) G4 | (G4 F4) A4{G} | G8 c4 | B4 (e6 A2) | (G2 AF) G4 F4 | E8 || %9
 E4 | B8 B4 | B8 B4 | B8 B4 | B8 B4{e} | e8 d4 | g8 f4 | (e4 d4) c4 | B8 A4{G} | G8 F4{G} | E8 F4 | %20
 (G4 A4) G4 | (G4 F4) A4{G} | G8 c4{B} | (B4 e4) A4 | (G2 AF) G4 F4 | E8 |] %26

